packages/core/src/svgs/tokens/branded/BMX.svg

<svg width="24" height="24" viewBox="0 0 24 24" fill="none" xmlns="http://www.w3.org/2000/svg">
<path d="M6.41202 2.88234H9.64725C13.3297 2.94117 14.0767 2.91764 15.1355 3.40587C15.8812 3.76867 16.5288 4.3053 17.0237 4.97057L17.3767 5.48821L16.7885 4.9941C15.4178 3.81763 15.0002 3.53529 11.1179 3.47057H7.58849V4.37645L10.5297 4.35293C14.2944 4.35293 15.0297 4.58233 16.1119 5.47058C16.712 5.95293 16.8708 6.31763 16.3002 5.88234C15.5002 5.29411 15.1826 4.99999 12.2943 4.94116H9.35325V5.88234L12.2943 5.82351C14.0531 5.82351 16.765 6.51762 16.7767 8.03527C16.7885 9.5529 15.9179 9.64705 14.3532 9.64705C13.4709 9.64705 12.012 9.62344 11.012 9.64705H9.35325V10.5293H12.0002C13.9591 10.5764 16.2238 10.7647 17.6591 12.2823C18.3825 13.047 18.5297 13.3705 17.9061 12.8235C16.0355 11.2059 13.4238 11.4235 11.1179 11.4117H7.58849V12.2941H11.1179C15.2061 12.3529 15.9238 12.4 16.765 12.9705C17.1709 13.2647 17.9885 14.1059 17.9179 14.1824C17.8943 14.2058 17.7002 14.0705 17.4826 13.8882C16.6826 13.2176 16.3885 13.2176 12.8826 13.1764C9.77668 13.1411 9.94139 13.2647 9.94139 13.4706C9.94139 13.6764 9.7296 13.7058 12.2943 13.7647C14.0415 13.8059 18.6532 13.4471 17.812 16.4471C17.2944 18.1765 11.012 17.8823 9.05911 17.8823C4.3532 17.8823 4.05908 17.9588 4.05908 18.1765C4.05908 18.4058 4.4885 18.5059 10.5297 18.4706C12.3532 18.4588 16.412 18.4706 17.6238 17.853C17.759 17.7235 17.865 17.6705 17.865 17.7235C17.865 17.8529 17.212 18.5118 16.765 18.8235C16.1531 19.2587 15.512 19.2882 13.1767 19.3529H10.8238L10.8061 20.2528H12.4472C15.8826 20.2528 17.3297 19.794 18.3943 18.3823C18.8708 17.7647 18.9237 17.8411 18.512 18.5352C18.0006 19.3048 17.3023 19.9322 16.4825 20.3588C15.1885 20.9765 14.8709 21.0647 10.5297 21.1175H6.41202V22H10.3179C13.112 21.9588 16.212 22.0882 18.3766 19.9823C19.4826 18.8765 19.9413 17.7235 19.9413 15.9293C19.9413 14.247 19.4708 12.9059 18.5531 11.9118C18.3696 11.7355 18.2077 11.538 18.0708 11.3235C18.0708 11.2764 18.2062 10.9647 18.3766 10.6176C18.9885 9.35292 19.0355 7.28234 18.4885 5.74705C17.812 3.87646 15.9884 2.51764 13.6002 2.11764C13.2355 2.05881 11.4296 2 9.59441 2H6.41202V2.88234Z" fill="#17D5CF"/>
<path d="M6.41162 5.23535C6.41162 5.54123 6.45867 5.55299 7.27044 5.51182C8.00574 5.46475 8.14103 5.42358 8.17044 5.19417C8.19984 4.97064 8.11161 4.94122 7.31161 4.94122C6.47043 4.94122 6.41162 4.95887 6.41162 5.23535ZM6.99985 7.00004C6.99985 7.29416 7.07044 7.29416 10.5293 7.29416C13.9881 7.29416 14.0586 7.29416 14.0586 7.00004C14.0586 6.70593 13.9881 6.70593 10.5293 6.70593C7.07044 6.70593 6.99985 6.70593 6.99985 7.00004Z" fill="#42ACAA"/>
<path d="M5.23584 8.47058H9.35354L9.32403 8.19999C9.29466 7.94117 9.28286 7.94117 7.26526 7.90587L5.23584 7.88234V8.47058ZM10.5534 8.05294C10.4358 8.43529 10.6888 8.49999 12.377 8.4647C13.977 8.42351 14.0593 8.41175 14.0593 8.17058C14.0593 7.93528 13.977 7.92941 12.3358 7.88822C10.8476 7.86469 10.6182 7.88823 10.5534 8.05294ZM6.41232 15.2411C6.41232 15.5294 6.47113 15.5588 7.27113 15.5117C7.99466 15.4647 8.13584 15.4236 8.17114 15.1941C8.20643 14.9706 8.10642 14.9411 7.31231 14.9411C6.47702 14.9411 6.41232 14.9706 6.41232 15.2411Z" fill="#17D5CF"/>
<path d="M8.76524 15.2352C8.76524 15.5176 8.83583 15.5294 11.4124 15.5294C13.9888 15.5294 14.0593 15.5176 14.0593 15.2352C14.0593 14.9529 13.9888 14.9411 11.4124 14.9411C8.83583 14.9411 8.76524 14.9529 8.76524 15.2352ZM5.23584 16.4118C5.23584 16.6941 5.30643 16.7058 7.58878 16.7058C9.87113 16.7058 9.94168 16.6941 9.94168 16.4118C9.94168 16.1293 9.87113 16.1176 7.58878 16.1176C5.30643 16.1176 5.23584 16.1293 5.23584 16.4118Z" fill="#42ACAA"/>
<path d="M11.1182 16.4118C11.1182 16.6941 11.1888 16.7058 12.5888 16.7058C13.9888 16.7058 14.0593 16.6941 14.0593 16.4118C14.0593 16.1293 13.9888 16.1177 12.5888 16.1177C11.1888 16.1177 11.1182 16.1293 11.1182 16.4118ZM5.23584 19.9412C5.23584 20.2235 5.31232 20.2353 7.58878 20.2353C9.86523 20.2353 9.94168 20.2235 9.94168 19.9412C9.94168 19.6588 9.86523 19.647 7.58878 19.647C5.31232 19.647 5.23584 19.6588 5.23584 19.9412Z" fill="#17D5CF"/>
<path d="M4.05908 22H5.23555V21.4117H4.05908V22Z" fill="#42ACAA"/>
</svg>

<svg xmlns="http://www.w3.org/2000/svg" width="24" height="24" fill="none" viewBox="0 0 24 24">
    <path fill="#17D5CF" d="M6.412 2.882h3.235c3.683.06 4.43.036 5.489.524.745.363 1.393.9 1.888 1.565l.353.517-.588-.494C15.417 3.818 15 3.535 11.118 3.471h-3.53v.905l2.942-.023c3.764 0 4.5.23 5.582 1.118.6.482.759.847.188.411-.8-.588-1.117-.882-4.006-.94h-2.94v.94l2.94-.058c1.76 0 4.471.694 4.483 2.211.011 1.518-.86 1.612-2.424 1.612-.882 0-2.341-.024-3.341 0H9.353v.882H12c1.96.047 4.224.236 5.66 1.753.723.765.87 1.088.246.541-1.87-1.617-4.482-1.4-6.788-1.411h-3.53v.882h3.53c4.088.059 4.806.106 5.647.676.406.295 1.223 1.136 1.153 1.212-.024.024-.218-.112-.435-.294-.8-.67-1.094-.67-4.6-.712-3.106-.035-2.942.089-2.942.295 0 .205-.211.235 2.353.294 1.747.04 6.36-.318 5.518 2.682-.518 1.73-6.8 1.435-8.753 1.435-4.706 0-5 .077-5 .294 0 .23.43.33 6.47.295 1.824-.012 5.883 0 7.095-.618.135-.13.241-.183.241-.13 0 .13-.653.789-1.1 1.1-.612.436-1.253.465-3.588.53h-2.353l-.018.9h1.641c3.436 0 4.883-.459 5.947-1.87.477-.618.53-.542.118.152a5.5 5.5 0 0 1-2.03 1.824c-1.293.617-1.611.706-5.952.758H6.412V22h3.906c2.794-.041 5.894.088 8.059-2.018 1.106-1.105 1.564-2.258 1.564-4.053 0-1.682-.47-3.023-1.388-4.017a3.2 3.2 0 0 1-.482-.589c0-.047.135-.358.306-.705.611-1.265.659-3.336.111-4.871-.676-1.87-2.5-3.23-4.888-3.63C13.236 2.06 11.43 2 9.594 2H6.412z"/>
    <path fill="#42ACAA" d="M6.412 5.235c0 .306.047.318.858.277.736-.047.871-.088.9-.318.03-.223-.058-.253-.858-.253-.842 0-.9.018-.9.294M7 7c0 .294.07.294 3.53.294 3.458 0 3.529 0 3.529-.294s-.07-.294-3.53-.294S7 6.706 7 7"/>
    <path fill="#17D5CF" d="M5.236 8.47h4.118l-.03-.27c-.03-.259-.041-.259-2.059-.294l-2.03-.024zm5.317-.417c-.117.382.136.447 1.824.412 1.6-.041 1.682-.053 1.682-.294 0-.236-.082-.242-1.723-.283-1.488-.023-1.718 0-1.783.165m-4.14 7.188c0 .288.058.318.858.27.724-.046.865-.087.9-.317.035-.223-.065-.253-.859-.253-.835 0-.9.03-.9.3"/>
    <path fill="#42ACAA" d="M8.765 15.235c0 .283.07.294 2.647.294s2.647-.011 2.647-.294c0-.282-.07-.294-2.647-.294s-2.647.012-2.647.294m-3.53 1.177c0 .282.071.294 2.354.294s2.353-.012 2.353-.294c0-.283-.07-.294-2.353-.294s-2.353.011-2.353.294"/>
    <path fill="#17D5CF" d="M11.118 16.412c0 .282.07.294 1.47.294s1.471-.012 1.471-.294c0-.283-.07-.294-1.47-.294s-1.47.011-1.47.294m-5.882 3.53c0 .282.076.293 2.353.293 2.276 0 2.353-.011 2.353-.294 0-.282-.077-.294-2.353-.294s-2.353.012-2.353.294"/>
    <path fill="#42ACAA" d="M4.06 22h1.176v-.588H4.059z"/>
</svg>
